X:1
L:1/8
Q:1/4=164
M:6/8
K:D
 E |:""^A part"" F2 E F2 G | A2 B A3 | B2 A G2 F | E2 F G2 E | F2 E F2 G | A2 B A2 G | FGF EFE |1 
 D2 A, D2 E :|2 D2 A, D3 |:""^B part"" F2 E D2 C | B,2 C D2 E | FGA G2 F | E2 F G3 | F2 E D2 C | 
 B,2 C D2 E | FGA GFE |1 D2 A, D3 :|2 D2 A, D2 A |:""^C part"" dcd efe | dBA F2 A | dcd efe | 
 afd e2 A | dcd efe | dBA F2 G | ABA GFE |1 D2 A, D2 A :|2 D3 [A,D]3 |:""^D part"" ABA FGA | 
 BAB fed | ABA FGA | GFG E2 F | ABA FGA | BAB fed | ABA FGA | GFE D3 :|
